X:0659
T:Fill the Stoup.
M:C|
L:1/8
Q:1/2=104
I: :: :: :: ::
Z:Jack Campin * www.campin.me.uk * 2009
K:A Mixolydian
a|(fe)(dc)     eBBa|(fe)(dc)     fAAa|(fe)(dc)     eAcA |dfce fBB:|
f| AATcA       eAAf| AAcA        fBBf| AAcA        eAcA |dfce fBB:|
f| eaca        eAAf| eaca        fBBf| eaca        eace |dfce fBB:|
f| A/A/A (TcA) dAAf| A/A/A (TcA) fBBf| A/A/A c/A/A eAc>B|dfce fBB:|

